flaticon/hand-gestures/tap-32.svg

<svg xmlns="http://www.w3.org/2000/svg" width="32" height="32" viewBox="0 0 24 24">
    <path d="M7.601562.800781L.398438.800781.398438 8 7.601562 8zM6.800781 7.199219L1.199219 7.199219 1.199219 1.601562 3.601562 1.601562 3.601562 4.640625 2.679688 3.71875C2.519531 3.558594 2.28125 3.558594 2.121094 3.71875 1.960938 3.878906 1.960938 4.121094 2.121094 4.28125L3.652344 5.8125C3.71875 5.929688 3.839844 6 4 6 4.160156 6 4.28125 5.929688 4.347656 5.8125L5.878906 4.28125C6.039062 4.121094 6.039062 3.878906 5.878906 3.71875 5.71875 3.558594 5.480469 3.558594 5.320312 3.71875L4.398438 4.640625 4.398438 1.601562 6.800781 1.601562zM14 4.800781C11.558594 4.800781 9.601562 6.761719 9.601562 9.199219L9.601562 13.601562 18.398438 13.601562 18.398438 9.199219C18.398438 6.761719 16.441406 4.800781 14 4.800781zM17.601562 12.800781L10.398438 12.800781 10.398438 9.199219C10.398438 7.199219 12 5.601562 14 5.601562 16 5.601562 17.601562 7.199219 17.601562 9.199219zM18 16.398438L10 16.398438C9.761719 16.398438 9.601562 16.558594 9.601562 16.800781 9.601562 17.039062 9.761719 17.199219 10 17.199219L18 17.199219C18.238281 17.199219 18.398438 17.039062 18.398438 16.800781 18.398438 16.558594 18.238281 16.398438 18 16.398438zM18 18L10 18C9.761719 18 9.601562 18.160156 9.601562 18.398438 9.601562 18.640625 9.761719 18.800781 10 18.800781L18 18.800781C18.238281 18.800781 18.398438 18.640625 18.398438 18.398438 18.398438 18.160156 18.238281 18 18 18zM18 18"/>
    <path d="M 23.601562 9.601562 C 23.601562 4.320312 19.28125 0 14 0 C 12.039062 0 10.199219 0.558594 8.601562 1.640625 C 8.398438 1.761719 8.359375 2 8.480469 2.199219 C 8.601562 2.398438 8.839844 2.441406 9.039062 2.320312 C 10.519531 1.320312 12.199219 0.800781 14 0.800781 C 18.839844 0.800781 22.800781 4.761719 22.800781 9.601562 C 22.800781 12.078125 21.796875 14.398438 20 16.03125 L 20 9.199219 C 20 5.878906 17.320312 3.199219 14 3.199219 C 10.679688 3.199219 8 5.878906 8 9.199219 L 8 16.0625 C 5.988281 14.242188 4.800781 11.886719 4.800781 9.601562 C 4.800781 9.359375 4.640625 9.199219 4.398438 9.199219 C 4.160156 9.199219 4 9.359375 4 9.601562 C 4 12.300781 5.496094 15.082031 8 17.074219 L 8 18 C 8 21.320312 10.679688 24 14 24 C 17.320312 24 20 21.320312 20 18 L 20 17.078125 C 22.300781 15.273438 23.601562 12.53125 23.601562 9.601562 Z M 14 23.199219 C 11.121094 23.199219 8.800781 20.878906 8.800781 18 L 8.800781 9.199219 C 8.800781 6.320312 11.121094 4 14 4 C 16.878906 4 19.199219 6.320312 19.199219 9.199219 L 19.199219 16.824219 C 19.199219 16.851562 19.199219 16.878906 19.199219 16.90625 L 19.199219 18 C 19.199219 20.878906 16.878906 23.199219 14 23.199219 Z M 14 23.199219"/>
</svg>

<svg xmlns="http://www.w3.org/2000/svg" width="32" height="32" viewBox="0 0 24 24">
    <path d="M7.602.8H.398V8h7.204zM6.8 7.2H1.199V1.601h2.403V4.64l-.922-.922a.385.385 0 0 0-.559 0 .39.39 0 0 0 0 .562l1.531 1.532A.38.38 0 0 0 4 6a.38.38 0 0 0 .348-.188l1.53-1.53a.39.39 0 0 0 0-.563.385.385 0 0 0-.558 0l-.922.922V1.6h2.403zm0 0M14 4.8a4.385 4.385 0 0 0-4.398 4.4v4.402h8.796V9.199A4.385 4.385 0 0 0 14 4.801zm3.602 8h-7.204V9.2c0-2 1.602-3.598 3.602-3.598 2 0 3.602 1.597 3.602 3.597zm0 0M18 16.398h-8c-.238 0-.398.16-.398.403 0 .238.16.398.398.398h8c.238 0 .398-.16.398-.398 0-.242-.16-.403-.398-.403zm0 0M18 18h-8c-.238 0-.398.16-.398.398 0 .243.16.403.398.403h8c.238 0 .398-.16.398-.403 0-.238-.16-.398-.398-.398zm0 0"/>
    <path d="M23.602 9.602C23.602 4.32 19.282 0 14 0c-1.96 0-3.8.559-5.398 1.64-.204.122-.243.36-.122.56.122.198.36.241.56.12C10.52 1.32 12.2.8 14 .8c4.84 0 8.8 3.962 8.8 8.802 0 2.476-1.003 4.796-2.8 6.43V9.198c0-3.32-2.68-6-6-6s-6 2.68-6 6v6.864c-2.012-1.82-3.2-4.176-3.2-6.461 0-.243-.16-.403-.402-.403-.238 0-.398.16-.398.403 0 2.699 1.496 5.48 4 7.472V18c0 3.32 2.68 6 6 6s6-2.68 6-6v-.922c2.3-1.805 3.602-4.547 3.602-7.476zM14 23.199A5.19 5.19 0 0 1 8.8 18V9.2A5.19 5.19 0 0 1 14 4a5.19 5.19 0 0 1 5.2 5.2V18a5.19 5.19 0 0 1-5.2 5.2zm0 0"/>
</svg>
